X: 28844
T: My Wife's A Drunkard
R: reel
M: 4/4
K: Dmajor
e|ae ~e2 a2 ef|gede g2 fg|ae ~e2 a2 ge|1 dBGB A3:|2 dBGB A2||
Bd|eAcA e2 ge|dBGB d2 cd|eAcA e2 ge|1 dBGB A2:|[ 2 dBGB A3||

